X:1813
T:Bourr\'ee Jess Abrahams
R:Bourr\'ee
O:England
M:3/4
C:Bob Tyson
A:Lancaster
K:G
A2dcB2| A2dcB2| AB AG FE| FG FE D2|\
A2dcB2| A2dcB2| ABc2d2|1 A4G2:|2 A4B2||
|: c2cd cB| A4Bc| d2de =fe| dc BA G2|\
c2 cd cB| A4 Bc| d2 de dB|1 c4 A2 :|2 c4 B2|]
W:Copyright Bob Tyson


